src/topics/icons/modernizr.svg

<svg height="123" preserveAspectRatio="xMidYMid" viewBox="0 0 256 123" width="256" xmlns="http://www.w3.org/2000/svg"><g fill="#d91b77"><path d="m0 122.88v-40.96h40.96v-40.96h40.96v-40.96h40.96v122.88z"/><path d="m133.12 0c67.8656 0 122.88 55.0158222 122.88 122.878578h-122.88z"/></g></svg>

<?xml version="1.0" encoding="UTF-8" standalone="no" ?>
<svg width="256px" height="123px" viewBox="0 0 256 123" version="1.1" xmlns="http://www.w3.org/2000/svg" xmlns:xlink="http://www.w3.org/1999/xlink" preserveAspectRatio="xMidYMid">
    <g fill="#D91B77">
        <path d="M0,122.88 L0,81.92 L40.96,81.92 L40.96,40.96 L81.92,40.96 L81.92,0 L122.88,0 L122.88,122.88 L0,122.88 Z"></path>
        <path d="M133.12,0 C200.9856,0 256,55.0158222 256,122.878578 L133.12,122.878578 L133.12,0 L133.12,0 Z"></path>
    </g>
</svg>
